X: 52
T: The Hurry Scurry
R: hornpipe
M: C|
L: 1/8
Z: 2012 John Chambers <jc:trillian.mit.edu>
B: Saml. Ann & Peter Thompson "Twenty Four Country Dances for the Year 1791", London 1791, p.26 #2
K: D
% - - - - - - - - - - - - - - - - - - - - - - - - -
|: d>AF>D d>AF>D | d>AF>D [A2A,2][A2A,2] | E>FG>A B>AG>F | F2TE2 D4 :|
|: d2df B2Bd | A2Ac d>AF>D | d2df B2Bd | A2Ac d4 :|
% - - - - - - - - Dance description - - - - - - - -
%%begintext align
%% 1st Gent: turn the 2d Lady .|.
%% 1st Lady turn the 2d Gent: :|.
%% Cross over one Cu: .|:
%% Right and Left :|:
%%endtext

%%sep 1 1 500
%%sep 1 1 500
